src/assets/icons/category_Housing.svg

<?xml version="1.0" encoding="UTF-8" standalone="no"?>
<svg width="38px" height="38px" viewBox="0 0 38 38" version="1.1" xmlns="http://www.w3.org/2000/svg" xmlns:xlink="http://www.w3.org/1999/xlink">
    <!-- Generator: sketchtool 41.2 (35397) - http://www.bohemiancoding.com/sketch -->
    <title>3C32073F-7903-4BE0-B197-6914ABB41E57</title>
    <desc>Created with sketchtool.</desc>
    <defs></defs>
    <g id="Nav" stroke="none" stroke-width="1" fill="none" fill-rule="evenodd">
        <g id="Categories_Selected_Mobile-" transform="translate(-80.000000, -611.000000)" fill="#AEAEAE">
            <path d="M104.297956,641.75 L102.877706,641.75 L102.877706,637.989583 C102.877706,636.570917 101.724248,635.416667 100.305581,635.416667 L97.5339561,635.416667 C96.1152895,635.416667 94.9610395,636.570917 94.9610395,637.989583 L94.9610395,641.75 L93.5407895,641.75 C91.7239145,641.75 90.2110395,640.237125 90.2110395,638.42025 L90.2110395,629.083333 L107.627706,629.083333 L107.627706,638.42025 C107.627706,640.237125 106.114831,641.75 104.297956,641.75 L104.297956,641.75 Z M101.294373,641.75 L96.5443728,641.75 L96.5443728,637.989583 C96.5443728,637.444125 96.9884978,637 97.5339561,637 L100.305581,637 C100.851039,637 101.294373,637.444125 101.294373,637.989583 L101.294373,641.75 Z M92.3358728,621.246625 C92.3445811,621.232375 92.3984145,621.166667 92.4870811,621.166667 L94.1693728,621.166667 L94.1693728,621.958333 C94.1693728,622.395333 94.5240395,622.75 94.9610395,622.75 C95.3980395,622.75 95.7527061,622.395333 95.7527061,621.958333 L95.8025811,619.583333 L97.3360395,619.633208 L97.3360395,621.958333 C97.3360395,622.395333 97.6907061,622.75 98.1277061,622.75 C98.5647061,622.75 98.9193728,622.395333 98.9193728,621.958333 L98.9193728,621.166667 L105.352456,621.166667 C105.440331,621.166667 105.494164,621.232375 105.502873,621.247417 L109.163539,627.405792 C109.157206,627.416875 109.112081,627.5 109.011539,627.5 L88.8272061,627.5 C88.7519978,627.5 88.7092478,627.439042 88.6886645,627.443792 L92.3358728,621.246625 Z M106.957164,620.439917 C106.634956,619.89525 106.019831,619.583333 105.352456,619.583333 L98.9090811,619.583333 C98.8544561,618.791667 98.1514561,618 97.2869561,618 L95.8025811,618 C94.9372895,618 94.2342895,618.791667 94.1796645,619.583333 L92.4870811,619.583333 C91.8189145,619.583333 91.2037895,619.89525 90.8815811,620.439125 L87.2217061,626.604625 C86.9192895,627.11525 86.9319561,627.720875 87.2248728,628.235458 C87.5059145,628.729458 87.8360395,629.035833 88.6277061,629.107083 L88.6277061,638.42025 C88.6277061,641.149125 90.8119145,643.333333 93.5407895,643.333333 L104.297956,643.333333 C107.026831,643.333333 109.211039,641.149125 109.211039,638.42025 L109.211039,629.107083 C110.002706,629.035833 110.332831,628.722333 110.613873,628.229125 C110.906789,627.714542 110.910748,627.11525 110.608331,626.604625 L106.957164,620.439917 Z M94.169452,631.458333 C93.732452,631.458333 93.3777853,631.813 93.3777853,632.25 L93.3777853,633.041667 C93.3777853,633.478667 93.732452,633.833333 94.169452,633.833333 C94.606452,633.833333 94.9611186,633.478667 94.9611186,633.041667 L94.9611186,632.25 C94.9611186,631.813 94.606452,631.458333 94.169452,631.458333 Z M97.3361186,631.458333 C96.8991186,631.458333 96.544452,631.813 96.544452,632.25 L96.544452,633.041667 C96.544452,633.478667 96.8991186,633.833333 97.3361186,633.833333 C97.7731186,633.833333 98.1277853,633.478667 98.1277853,633.041667 L98.1277853,632.25 C98.1277853,631.813 97.7731186,631.458333 97.3361186,631.458333 Z M100.502785,631.458333 C100.065785,631.458333 99.7111186,631.813 99.7111186,632.25 L99.7111186,633.041667 C99.7111186,633.478667 100.065785,633.833333 100.502785,633.833333 C100.939785,633.833333 101.294452,633.478667 101.294452,633.041667 L101.294452,632.25 C101.294452,631.813 100.939785,631.458333 100.502785,631.458333 Z M103.669452,631.458333 C103.232452,631.458333 102.877785,631.813 102.877785,632.25 L102.877785,633.041667 C102.877785,633.478667 103.232452,633.833333 103.669452,633.833333 C104.106452,633.833333 104.461119,633.478667 104.461119,633.041667 L104.461119,632.25 C104.461119,631.813 104.106452,631.458333 103.669452,631.458333 Z" id="Combined-Shape"></path>
        </g>
    </g>
</svg>

<svg width="38" height="38" viewBox="0 0 38 38" xmlns="http://www.w3.org/2000/svg"><g id="Nav" fill="none" fill-rule="evenodd"><g id="Categories_Selected_Mobile-" transform="translate(-80 -611)" fill="#AEAEAE"><path d="M104.298 641.75h-1.42v-3.76a2.575 2.575 0 0 0-2.572-2.573h-2.772a2.576 2.576 0 0 0-2.573 2.573v3.76h-1.42c-1.817 0-3.33-1.513-3.33-3.33v-9.337h17.417v9.337c0 1.817-1.513 3.33-3.33 3.33zm-3.004 0h-4.75v-3.76c0-.546.444-.99.99-.99h2.772a.99.99 0 0 1 .988.99v3.76zm-8.958-20.503a.19.19 0 0 1 .151-.08h1.682v.791a.792.792 0 0 0 1.584 0l.05-2.375 1.533.05v2.325a.792.792 0 0 0 1.583 0v-.791h6.433c.088 0 .142.065.15.08l3.662 6.159c-.007.01-.052.094-.152.094H88.827c-.075 0-.118-.061-.138-.056l3.647-6.197zm14.621-.807c-.322-.545-.937-.857-1.605-.857H98.91c-.055-.791-.758-1.583-1.622-1.583h-1.484c-.866 0-1.569.792-1.623 1.583h-1.693c-.668 0-1.283.312-1.605.856l-3.66 6.166c-.303.51-.29 1.116.003 1.63.28.494.611.8 1.403.872v9.313a4.893 4.893 0 0 0 4.913 4.913h10.757a4.893 4.893 0 0 0 4.913-4.913v-9.313c.792-.071 1.122-.385 1.403-.878a1.59 1.59 0 0 0-.006-1.624l-3.65-6.165zM94.17 631.458a.792.792 0 0 0-.791.792v.792a.792.792 0 0 0 1.583 0v-.792a.792.792 0 0 0-.792-.792zm3.167 0a.792.792 0 0 0-.792.792v.792a.792.792 0 0 0 1.584 0v-.792a.792.792 0 0 0-.792-.792zm3.167 0a.792.792 0 0 0-.792.792v.792a.792.792 0 0 0 1.583 0v-.792a.792.792 0 0 0-.791-.792zm3.166 0a.792.792 0 0 0-.791.792v.792a.792.792 0 0 0 1.583 0v-.792a.792.792 0 0 0-.792-.792z" id="Combined-Shape"/></g></g></svg>
